tools/download-figma-icons/icons/outlined-medium/magic-link.svg

<svg width="24" height="24" viewBox="0 0 24 24" fill="none" xmlns="http://www.w3.org/2000/svg">
<path d="M22.1394 23.653H1.8604C0.832948 23.653 0.000488281 22.8205 0.000488281 21.7931V8.30123C0.000488281 7.91125 0.210478 7.58126 0.555461 7.43127C0.937943 7.26628 1.41792 7.35627 1.7554 7.66376L11.9999 16.9708L22.2444 7.66376C22.7694 7.19128 23.1894 7.23628 23.4518 7.34877C23.6168 7.42377 23.9993 7.66376 23.9993 8.30123V21.7931C23.9993 22.8205 23.1669 23.653 22.1394 23.653ZM1.50042 9.45617V21.7931C1.50042 21.9881 1.65791 22.1531 1.8604 22.1531H22.1469C22.3419 22.1531 22.5069 21.9956 22.5069 21.7931V9.46367L12.5099 18.5382C12.2249 18.8007 11.7899 18.8007 11.4974 18.5382L1.50042 9.45617Z" fill="black"/>
<path d="M3.88532 20.3305C3.68283 20.3305 3.48034 20.248 3.33785 20.0905C3.05286 19.783 3.07536 19.3106 3.38285 19.0331L8.17511 14.6008C8.4751 14.3158 8.95508 14.3383 9.23256 14.6458C9.51755 14.9533 9.49505 15.4257 9.18756 15.7032L4.3953 20.1355C4.2528 20.2705 4.06531 20.338 3.88532 20.338V20.3305Z" fill="black"/>
<path d="M20.1145 20.3321C19.9345 20.3321 19.747 20.2646 19.6045 20.1296L14.8123 15.6973C14.5048 15.4124 14.4898 14.9399 14.7673 14.6399C15.0523 14.3324 15.5247 14.3174 15.8247 14.5949L20.617 19.0272C20.9245 19.3122 20.9395 19.7847 20.662 20.0846C20.512 20.2421 20.3095 20.3246 20.1145 20.3246V20.3321Z" fill="black"/>
<path d="M15.3972 3.84731C15.2472 3.84731 15.1048 3.80231 14.9698 3.71232L11.9999 1.65742L9.03005 3.71232C8.69256 3.94481 8.22009 3.86231 7.9876 3.52483C7.75511 3.18734 7.83761 2.71487 8.17509 2.48238L11.5724 0.134993C11.8274 -0.0449978 12.1649 -0.0449978 12.4274 0.134993L15.8247 2.48238C16.1697 2.71487 16.2522 3.18734 16.0122 3.52483C15.8697 3.73482 15.6297 3.84731 15.3972 3.84731Z" fill="black"/>
<path d="M0.750538 8.8278C0.50305 8.8278 0.255562 8.70031 0.113069 8.47532C-0.104421 8.12284 0.000574077 7.65786 0.353057 7.44037L2.97793 5.80545C3.33041 5.58796 3.78789 5.69296 4.01288 6.04544C4.23037 6.39792 4.12537 6.8629 3.77289 7.08039L1.14802 8.71531C1.02052 8.79031 0.885531 8.8278 0.750538 8.8278Z" fill="black"/>
<path d="M23.2494 8.82598C23.1219 8.82598 22.9945 8.79599 22.8745 8.72849L20.2496 7.21356C19.8896 7.00357 19.7696 6.54609 19.9721 6.18611C20.1746 5.82613 20.6321 5.70614 20.9996 5.90863L23.6244 7.42355C23.9844 7.63354 24.1044 8.09102 23.9019 8.451C23.7669 8.69099 23.5119 8.82598 23.2494 8.82598Z" fill="black"/>
<path d="M4.33538 10.2374H2.83545V3.9527C2.83545 3.13524 3.50292 2.46777 4.32038 2.46777H19.8596C20.6771 2.46777 21.3445 3.13524 21.3445 3.9527V10.1924H19.8446V3.9527L4.31288 3.9677L4.32788 10.2374H4.33538Z" fill="black"/>
<path d="M5.9404 9.20939L6.45788 8.49692L5.61792 8.22693L5.80541 7.64946L6.64537 7.91945V7.04199H7.25284V7.91945L8.0853 7.64196L8.27279 8.21943L7.44033 8.49692L7.95781 9.20939L7.47033 9.56187L6.95286 8.8569L6.42788 9.56187L5.9404 9.20939Z" fill="black"/>
<path d="M9.19529 9.20939L9.71276 8.49692L8.8728 8.22693L9.06029 7.64946L9.90025 7.91945V7.04199H10.5077V7.91945L11.3402 7.64196L11.5277 8.21943L10.6952 8.49692L11.2127 9.20939L10.7252 9.56187L10.2077 8.8569L9.68276 9.56187L9.19529 9.20939Z" fill="black"/>
<path d="M12.45 9.20939L12.9675 8.49692L12.1276 8.22693L12.3151 7.64946L13.155 7.91945V7.04199H13.7625V7.91945L14.5949 7.64196L14.7824 8.21943L13.95 8.49692L14.4674 9.20939L13.98 9.56187L13.4625 8.8569L12.9375 9.56187L12.45 9.20939Z" fill="black"/>
<path d="M15.7124 9.20939L16.2299 8.49692L15.3899 8.22693L15.5774 7.64946L16.4173 7.91945V7.04199H17.0248V7.91945L17.8573 7.64196L18.0448 8.21943L17.2123 8.49692L17.7298 9.20939L17.2423 9.56187L16.7248 8.8569L16.1999 9.56187L15.7124 9.20939Z" fill="black"/>
</svg>

<svg width="24" height="24" viewBox="0 0 24 24" fill="none" xmlns="http://www.w3.org/2000/svg"><path d="M22.14 23.653H1.86A1.86 1.86 0 0 1 0 21.793V8.301c0-.39.21-.72.555-.87.383-.165.863-.075 1.2.233L12 16.97l10.244-9.307c.525-.473.945-.428 1.208-.315.165.075.547.315.547.952v13.492a1.86 1.86 0 0 1-1.86 1.86ZM1.5 9.456v12.337c0 .195.158.36.36.36h20.287a.36.36 0 0 0 .36-.36V9.463l-9.997 9.075a.75.75 0 0 1-1.013 0L1.5 9.456Z" fill="currentColor"/><path d="M3.885 20.33a.739.739 0 0 1-.547-.24.74.74 0 0 1 .045-1.057l4.792-4.432a.74.74 0 0 1 1.058.045.74.74 0 0 1-.045 1.057l-4.793 4.433a.746.746 0 0 1-.51.202v-.008Zm16.229.002a.746.746 0 0 1-.51-.202l-4.792-4.433a.748.748 0 1 1 1.013-1.102l4.792 4.432a.748.748 0 0 1-.503 1.298v.007ZM15.397 3.847a.758.758 0 0 1-.427-.135L12 1.657 9.03 3.712a.754.754 0 0 1-1.042-.187.754.754 0 0 1 .187-1.043L11.572.135a.744.744 0 0 1 .855 0l3.398 2.347a.74.74 0 0 1 .187 1.043.748.748 0 0 1-.615.322ZM.75 8.828a.76.76 0 0 1-.637-.353.752.752 0 0 1 .24-1.035l2.625-1.635a.752.752 0 0 1 .795 1.275L1.148 8.715a.78.78 0 0 1-.397.113Zm22.5-.002a.756.756 0 0 1-.375-.098L20.25 7.214a.758.758 0 0 1-.278-1.028A.754.754 0 0 1 21 5.91l2.624 1.515c.36.21.48.667.278 1.027a.746.746 0 0 1-.653.375Z" fill="currentColor"/><path d="M4.335 10.237h-1.5V3.953c0-.818.668-1.485 1.485-1.485h15.54c.817 0 1.485.667 1.485 1.485v6.24h-1.5v-6.24l-15.532.015.015 6.27h.007Z" fill="currentColor"/><path d="m5.94 9.21.518-.713-.84-.27.187-.578.84.27v-.877h.608v.877l.832-.277.188.577-.833.278.518.712-.488.353-.517-.705-.525.705-.488-.353Zm3.255 0 .518-.713-.84-.27.187-.578.84.27v-.877h.608v.877l.832-.277.188.577-.833.278.518.712-.488.353-.517-.705-.525.705-.488-.353Zm3.255 0 .518-.713-.84-.27.187-.578.84.27v-.877h.607v.877l.833-.277.187.577-.832.278.517.712-.487.353-.518-.705-.524.705-.488-.353Zm3.262 0 .518-.713-.84-.27.187-.578.84.27v-.877h.608v.877l.832-.277.188.577-.833.278.518.712-.488.353-.517-.705-.525.705-.488-.353Z" fill="currentColor"/></svg>
